X:270
T:O Day of Rest And Gladness
%%stretchlast false
M:4/4
L:1/4
K:F clef=C1
"^I"[FAcf] "^vi"[DAdf] "^V¹"[EGcc'] "^I"[FAca] | "^I¹"[A,cf] "^V"[CGce]3/2 "^i"[CFcf]/ "^V"[CEcg] | "^I¹"[A,Fc]/ "^iii"[A,Ec]/ "^IV"[B,Dcd] "^ii7"[G,Bdf]/ "^vi"[G,Adf]/ "^i"[CGcf] | "^V"[CGce] "^iv"[CBcf] "^I²"[CAcf]2 | "^I"[FAcf] "^vi"[DAdf] "^V¹"[EGcc'] "^I"[FAca] | "^I¹"[A,cf] "^V"[CGce]3/2 "^i"[CFcf]/ "^V"[CEcg] | "^I¹"[A,Fc]/ "^iii"[A,Ec]/ "^IV"[B,Dcd] "^ii7"[G,Bdf]/ "^vi"[G,Adf]/ "^i"[CGcf] | "^V"[CGce] "^I"[FAcf]3 | [Fca] [FAcf] "^V¹"[Ecgc'] "^vi7"[Ddfc']/ "^IV¹"[Ddfb]/ | "^vi"[Ddfa]/ "^vi7"[Dcfa]/ "^v"[Gcdg] "^V/V"[G=Bdg] "^V"[Cceg] | "^IV"[B,Fdb]/ "^IV¹"[DFdb]/ "^I"[Fca] "^V"[CEcg] "^iii"[A,Eca] | "^vi"[DFAf] "^V/V"[G,D=Bg] "^V"[CEcg]2 | "^I¹"[A,Fcc'] "^IV"[B,Fdb] "^I"[F,Fca] "^ii"[G,DBg]/ [G,EBg]/ | "^I¹"[A,Fcf] "^V"[CGce]3/2 "^i"[CFcf]/ "^V"[CEcg] | "^I¹"[A,Fc]/ "^iii"[A,Ec]/ "^IV"[B,Dcd] "^ii7"[G,Bdf]/ "^vi"[G,Adf]/ "^i"[CGcf] | "^V"[CGce] "^I"[F,Acf]3 |]
